X:1
T:Title
%%score ( 1 2 ) { 3 | 4 }
L:1/8
Q:1/4=90
M:4/4
K:D
V:1 treble nm="Grand Piano, Soprano"
V:2 treble 
V:3 bass nm="Choir Pad, Jesus Found Me, H. Rasmus"
V:4 bass 
V:1
 [DF][DF][EG][FA]- [FA]/[FA]/[=F^G] [^FA][=GB] | [FA][DF]D[DF]- [DF]3 [CE]- | %2
w: By~George~D.~Elderkin * * * * * * * *||
 [CE][CE][DF][EG]- [EG]/[^DF]/[EG] [FA][Gc] | [GB][FA][EG][DF]- [DF]4- | %4
w: ||
 [DF][FA][FA][Fd]- [Fd]/[Fd]/[=Fc] [^Fd][Ge] | [Fd][Fd]- [Fd]/[FA]/[Ac]- [Ac] .[GB]3 | %6
w: ||
 [GB][=Fc][Fd][^FA]- [FA]2 [DF][CB] | [CA][CG][CE]D- D2- D/ z/ z | %8
w: ||
 z [DF][EG][FA]- [FA]/[FA]/[FA] [FA][FA] | [Fd][Fd][Ge][Fd]- [Fd]3 [Ec]- | %10
w: ||
 [Ec][Ec][Ed][Ee]- [Ee]/[Ee]/[Ae] [Ge][Fd] | z2 z A- A4- | A z z2 z4 | %13
w: |||
 [Fd][Fd][FA][Ac]- [Ac] .[GB]3 | [GB][=Fc][Fd][^FA]- [FA]2 [DF][CB] | [CA][CG][CE]D- D4- | %16
w: |||
 D2 z2 z4 |] %17
w: |
V:2
 x8 | x8 | x8 | x8 | x8 | x8 | x8 | x8 | x8 | x8 | x8 | [FB][EA][E^G]E- E F2 =G- | %12
 G[FA][EA][Fd]- [Fd]/[Fd]/[=Fc] [^Fd][Ge] | x8 | x8 | x8 | x8 |] %17
V:3
 A,A,A,D- D/[K:treble]D/D DD | D[K:bass]A,F,A,- A,3 A,- | A,A,A,A,- A,/A,/A, A,A, | %3
 A,A,A,A,- A,4- | A,DDA,- A,/A,/A, A,A, | A,A,- A,/[K:treble]D/D- D .D3 | D[K:bass]B,B,D- D2 A,G, | %7
 G,G,G,F,- F,2- F,/ z/ z | z[K:treble] A,A,D- D/D/D DD | A,A,A,A,- A,3 A,- | %10
 A,A,B,[K:treble]C- C/C/C A,A, | DCB,C- C D2 E- | EDC[K:bass]A,- A,/A,/A, A,A, | %13
 A,A,[K:treble]DD- D .D3 | D[K:bass]B,B,D- D2 A,G, | G,G,G,F,- F,4- | F,2 z2 z4 |] %17
V:4
 D,D,D,D,- D,/D,/D, D,D, | D,D,D,A,,- A,,3 A,,- | A,,A,,A,,A,,- A,,/A,,/A,, A,,A,, | %3
 A,,A,, z D,- D,4- | D,D,D,D,- D,/D,/D, D,D, | D,D,- D,/D,/G,- G, .G,3 | G,^G,G,A,- A,2 z A,, | %7
 A,,A,,A,,D,- D,2- D,/ z/ z | z D,D,D,- D,/D,/D, D,D, | D,D,D,A,,- A,,3 A,,- | %10
 A,,2 A,A,- A,/A,/A, C,D, | D,E,E,A,,- A,,4- | A,,A,A,D,- D,/D,/D, D,D, | D,D,D,G,- G, .G,3 | %14
 G,^G,G,A,- A,2 z A,, | A,,A,,A,,D,- D,4- | D,2 z2 z4 |] %17

